apps/22/dictionary.svg

<?xml version="1.0" encoding="UTF-8" standalone="no"?>
<!-- Created with Inkscape (http://www.inkscape.org/) -->

<svg
   xmlns:dc="http://purl.org/dc/elements/1.1/"
   xmlns:cc="http://creativecommons.org/ns#"
   xmlns:rdf="http://www.w3.org/1999/02/22-rdf-syntax-ns#"
   xmlns:svg="http://www.w3.org/2000/svg"
   xmlns="http://www.w3.org/2000/svg"
   xmlns:sodipodi="http://sodipodi.sourceforge.net/DTD/sodipodi-0.dtd"
   xmlns:inkscape="http://www.inkscape.org/namespaces/inkscape"
   width="22"
   height="22"
   id="svg27665"
   version="1.1"
   inkscape:version="0.48.3.1 r9886"
   sodipodi:docname="goldendict.svg">
  <defs
     id="defs27667" />
  <sodipodi:namedview
     id="base"
     pagecolor="#ffffff"
     bordercolor="#666666"
     borderopacity="1.0"
     inkscape:pageopacity="0.0"
     inkscape:pageshadow="2"
     inkscape:zoom="32.000001"
     inkscape:cx="15.344369"
     inkscape:cy="12.196717"
     inkscape:document-units="px"
     inkscape:current-layer="layer1"
     showgrid="true"
     inkscape:window-width="1920"
     inkscape:window-height="1033"
     inkscape:window-x="-10"
     inkscape:window-y="25"
     inkscape:window-maximized="1"
     inkscape:snap-bbox="true"
     inkscape:bbox-paths="true"
     inkscape:bbox-nodes="true"
     inkscape:snap-bbox-edge-midpoints="true"
     inkscape:snap-bbox-midpoints="true"
     inkscape:object-paths="true"
     inkscape:snap-intersection-paths="true"
     inkscape:object-nodes="true"
     inkscape:snap-smooth-nodes="true"
     inkscape:snap-midpoints="true"
     inkscape:snap-object-midpoints="true"
     inkscape:snap-center="true"
     inkscape:snap-global="true"
     showguides="false"
     inkscape:guide-bbox="true"
     fit-margin-top="0"
     fit-margin-left="0"
     fit-margin-right="0"
     fit-margin-bottom="0"
     inkscape:showpageshadow="false">
    <inkscape:grid
       type="xygrid"
       id="grid3469"
       empspacing="5"
       visible="true"
       enabled="true"
       snapvisiblegridlinesonly="true"
       originx="1.4067697e-05px"
       originy="719.00003px" />
    <sodipodi:guide
       orientation="1,0"
       position="11.000014,19.000035"
       id="guide3782" />
    <sodipodi:guide
       orientation="0,1"
       position="19.000014,30.000035"
       id="guide3784" />
  </sodipodi:namedview>
  <metadata
     id="metadata27670">
    <rdf:RDF>
      <cc:Work
         rdf:about="">
        <dc:format>image/svg+xml</dc:format>
        <dc:type
           rdf:resource="http://purl.org/dc/dcmitype/StillImage" />
        <dc:title />
      </cc:Work>
    </rdf:RDF>
  </metadata>
  <g
     inkscape:label="Camada 1"
     inkscape:groupmode="layer"
     id="layer1"
     transform="translate(1356.2085,-1754.6912)">
    <path
       sodipodi:nodetypes="cccccccccccccccccccccccccccccccccccccccccccccccccccccccccc"
       inkscape:connector-curvature="0"
       id="path2986"
       d="m -1353.2085,1756.6912 0,18 16,0 0,-16 -14,0 0,-1 14,0 0,-1 z m 7.3377,6 1.361,0 2.0599,5.8118 0.184,0.3679 0.1471,0.2207 0.2207,0.1106 0.2207,0.037 0.1839,0 0,0.515 -3.2737,0 0,-0.515 0.3678,0 0.1839,-0.037 0.1106,-0.073 0.1107,-0.1107 0.036,-0.1838 -0.036,-0.2208 -0.036,-0.1839 -0.3679,-0.9931 -2.391,0 -0.2943,0.8459 -0.073,0.2943 -0.036,0.2576 0.036,0.1838 0.1106,0.1107 0.1107,0.073 0.1839,0.037 0.4046,0 0,0.515 -2.5749,0 0,-0.515 0.1472,0 0.2207,-0.037 0.1839,-0.1106 0.1839,-0.2207 0.184,-0.3679 z m 0.331,1.0299 -0.073,0.3312 -0.1472,0.3678 -0.1106,0.3678 -0.1472,0.3679 -0.5885,1.6552 2.0231,0 -0.515,-1.6185 -0.1107,-0.331 -0.1106,-0.4047 -0.1107,-0.3678 z"
       style="color:#000000;fill:#27303a;fill-opacity:0.753280819999999968;fill-rule:nonzero;stroke:none;stroke-width:3.36001492;marker:none;visibility:visible;display:inline;overflow:visible;enable-background:accumulate" />
    <path
       style="font-size:medium;font-style:normal;font-variant:normal;font-weight:normal;font-stretch:normal;text-indent:0;text-align:start;text-decoration:none;line-height:normal;letter-spacing:normal;word-spacing:normal;text-transform:none;direction:ltr;block-progression:tb;writing-mode:lr-tb;text-anchor:start;baseline-shift:baseline;color:#000000;fill:#f1f3f5;fill-opacity:0.90288714000000003;fill-rule:nonzero;stroke:none;stroke-width:2;marker:none;visibility:visible;display:inline;overflow:visible;enable-background:accumulate;font-family:Sans;-inkscape-font-specification:Sans"
       d="M 2 1 L 2 2 L 2 20 L 2 21 L 3 21 L 19 21 L 20 21 L 20 20 L 20 4 L 20 3 L 20 2 L 20 1 L 19 1 L 3 1 L 2 1 z M 3 2 L 19 2 L 19 3 L 5 3 L 5 4 L 19 4 L 19 20 L 3 20 L 3 2 z M 10.34375 8 L 8.21875 13.8125 L 8.03125 14.1875 L 7.84375 14.40625 L 7.65625 14.5 L 7.4375 14.5625 L 7.28125 14.5625 L 7.28125 15.0625 L 9.875 15.0625 L 9.875 14.5625 L 9.46875 14.5625 L 9.28125 14.5 L 9.15625 14.4375 L 9.0625 14.3125 L 9.03125 14.15625 L 9.0625 13.875 L 9.125 13.59375 L 9.40625 12.75 L 11.8125 12.75 L 12.1875 13.75 L 12.21875 13.9375 L 12.25 14.15625 L 12.21875 14.3125 L 12.09375 14.4375 L 12 14.5 L 11.8125 14.5625 L 11.4375 14.5625 L 11.4375 15.0625 L 14.71875 15.0625 L 14.71875 14.5625 L 14.53125 14.5625 L 14.3125 14.5 L 14.09375 14.40625 L 13.9375 14.1875 L 13.75 13.8125 L 11.6875 8 L 10.34375 8 z M 10.65625 9.03125 L 10.78125 9.40625 L 10.875 9.75 L 11 10.15625 L 11.125 10.5 L 11.625 12.125 L 9.59375 12.125 L 10.1875 10.46875 L 10.34375 10.09375 L 10.4375 9.71875 L 10.59375 9.375 L 10.65625 9.03125 z "
       transform="translate(-1356.2085,1754.6912)"
       id="rect3016" />
  </g>
</svg>

<?xml version="1.0" encoding="UTF-8"?>
<svg id="d" width="22" height="22" version="1.1" xmlns="http://www.w3.org/2000/svg" xmlns:cc="http://creativecommons.org/ns#" xmlns:dc="http://purl.org/dc/elements/1.1/" xmlns:rdf="http://www.w3.org/1999/02/22-rdf-syntax-ns#">
	<metadata id="a">
		<rdf:RDF>
			<cc:Work rdf:about="">
				<dc:format>image/svg+xml</dc:format>
				<dc:type rdf:resource="http://purl.org/dc/dcmitype/StillImage"/>
				<dc:title/>
			</cc:Work>
		</rdf:RDF>
	</metadata>
	<defs id="e">
		<style id="current-color-scheme" type="text/css">.ColorScheme-Text {color:#090d11;}.ColorScheme-Background{color:#ffffff;}</style>
	</defs>
	<path id="b" class="ColorScheme-Text" d="m3 2v18h16v-16h-14v-1h14v-1zm7.3377 6h1.361l2.0599 5.8118 0.184 0.3679 0.1471 0.2207 0.2207 0.1106 0.2207 0.037h0.1839v0.515h-3.2737v-0.515h0.3678l0.1839-0.037 0.1106-0.073 0.1107-0.1107 0.036-0.1838-0.036-0.2208-0.036-0.1839-0.3679-0.9931h-2.391l-0.2943 0.8459-0.073 0.2943-0.036 0.2576 0.036 0.1838 0.1106 0.1107 0.1107 0.073 0.1839 0.037h0.4046v0.515h-2.5749v-0.515h0.1472l0.2207-0.037 0.1839-0.1106 0.1839-0.2207 0.184-0.3679zm0.331 1.0299-0.073 0.3312-0.1472 0.3678-0.1106 0.3678-0.1472 0.3679-0.5885 1.6552h2.0231l-0.515-1.6185-0.1107-0.331-0.1106-0.4047-0.1107-0.3678z" style="fill-opacity:.75;fill:currentColor"/>
	<path id="c" class="ColorScheme-Background" d="m2 1v20h18v-20h-17zm1 1h16v1h-14v1h14v16h-16zm7.3437 6-2.125 5.8125-0.1875 0.375-0.1875 0.2188-0.1875 0.094-0.2187 0.062h-0.1563v0.5h2.5938v-0.5h-0.4063l-0.1875-0.062-0.125-0.062-0.094-0.125-0.031-0.1562 0.031-0.2813 0.062-0.2812 0.2812-0.8438h2.4063l0.375 1 0.031 0.1875 0.031 0.2188-0.031 0.1562-0.125 0.125-0.094 0.062-0.1875 0.062h-0.375v0.5h3.2812v-0.5h-0.1875l-0.2187-0.062-0.2188-0.094-0.1562-0.2188-0.1875-0.375-2.0625-5.8125h-1.3438zm0.3125 1.0313 0.125 0.375 0.094 0.3437 0.125 0.4063 0.125 0.3437 0.5 1.625h-2.0313l0.5938-1.6562 0.1562-0.375 0.094-0.375 0.1562-0.3438 0.062-0.3437z" style="fill-opacity:.5;fill:currentColor"/>
</svg>
